data/icons/hicolor/scalable/apps/color.svg

<?xml version="1.0" encoding="UTF-8"?>
<svg xmlns="http://www.w3.org/2000/svg" width="128" height="128" viewBox="0 0 128 128">
  <defs>
    <linearGradient id="bg-gradient" x1="0%" y1="0%" x2="100%" y2="100%" gradientTransform="rotate(45 0.5 0.5)">
      <stop offset="0%" style="stop-color:#f99e5c;stop-opacity:1.000"/>
      <stop offset="100%" style="stop-color:#e25480;stop-opacity:1.000"/>
    </linearGradient>
  </defs>
  <rect id="background" x="9.5" y="9.5" width="109" height="109" rx="24" fill="url(#bg-gradient)" fill-opacity="1.000"/>
  <g id="icon" transform="translate(9.5,9.5)">
    <g id="group-0">
      <g id="element-g0-e0">
        <g transform="translate(40.0234,30.1426)">
          <svg
             width="35"
             height="55"
             viewBox="0 0 35 55"
             fill="none"
             version="1.1"
             id="svg9"
             sodipodi:docname="color.svg"
             inkscape:version="1.4.2 (ebf0e940d0, 2025-05-08)"
             xmlns:inkscape="http://www.inkscape.org/namespaces/inkscape"
             xmlns:sodipodi="http://sodipodi.sourceforge.net/DTD/sodipodi-0.dtd"
             xmlns="http://www.w3.org/2000/svg"
             xmlns:svg="http://www.w3.org/2000/svg">
            <sodipodi:namedview
               id="namedview9"
               pagecolor="#ffffff"
               bordercolor="#111111"
               borderopacity="1"
               inkscape:showpageshadow="0"
               inkscape:pageopacity="0"
               inkscape:pagecheckerboard="1"
               inkscape:deskcolor="#d1d1d1"
               inkscape:zoom="8.5703125"
               inkscape:cx="64"
               inkscape:cy="64"
               inkscape:window-width="2560"
               inkscape:window-height="1298"
               inkscape:window-x="0"
               inkscape:window-y="0"
               inkscape:window-maximized="1"
               inkscape:current-layer="svg9" />
            <path
               fill-rule="evenodd"
               clip-rule="evenodd"
               d="m 70.2505,47.6087 v 28.5736 l 1e-4,0.0281 v 1.1652 c 0,5.5921 -4.5333,10.1253 -10.1253,10.1253 C 54.5332,87.5009 50,82.9677 50,77.3756 v -1.1652 c 0,-5.5921 4.5332,-10.1253 10.1253,-10.1253 1.5886,0 3.0917,0.3658 4.4298,1.0178 V 44.1706 c 0,-0.6935 0.2479,-1.3291 0.6599,-1.823 C 65.7519,41.5356 66.673,41 67.7193,41 c 1.8134,0 4.4667,0.5193 6.7529,2.1654 2.4392,1.7562 4.2471,4.6568 4.2471,8.8346 0,1.6569 -1.3432,3 -3,3 -1.6569,0 -3,-1.3431 -3,-3 0,-2.2222 -0.8587,-3.3216 -1.7529,-3.9654 -0.2272,-0.1636 -0.4685,-0.3049 -0.7159,-0.4259 z"
               fill="#fafafa"
               id="path2"
               style="stroke-width:0.973052;filter:url(#filter1_d_812_2)"
               transform="matrix(1.0081544,0,0,1.0476139,-49.399566,-41.904556)" />
            <defs
               id="defs9">
              <filter
                 id="filter0_ii_812_2"
                 x="12"
                 y="12"
                 width="104"
                 height="105"
                 filterUnits="userSpaceOnUse"
                 color-interpolation-filters="sRGB">
                <feFlood
                   flood-opacity="0"
                   result="BackgroundImageFix"
                   id="feFlood2" />
                <feBlend
                   mode="normal"
                   in="SourceGraphic"
                   in2="BackgroundImageFix"
                   result="shape"
                   id="feBlend2" />
                <feColorMatrix
                   in="SourceAlpha"
                   type="matrix"
                   values="0 0 0 0 0 0 0 0 0 0 0 0 0 0 0 0 0 0 127 0"
                   result="hardAlpha"
                   id="feColorMatrix2" />
                <feOffset
                   dy="-4"
                   id="feOffset2" />
                <feComposite
                   in2="hardAlpha"
                   operator="arithmetic"
                   k2="-1"
                   k3="1"
                   id="feComposite2"
                   k1="0"
                   k4="0" />
                <feColorMatrix
                   type="matrix"
                   values="0 0 0 0 0 0 0 0 0 0 0 0 0 0 0 0 0 0 0.25 0"
                   id="feColorMatrix3" />
                <feBlend
                   mode="normal"
                   in2="shape"
                   result="effect1_innerShadow_812_2"
                   id="feBlend3" />
                <feColorMatrix
                   in="SourceAlpha"
                   type="matrix"
                   values="0 0 0 0 0 0 0 0 0 0 0 0 0 0 0 0 0 0 127 0"
                   result="hardAlpha"
                   id="feColorMatrix4" />
                <feMorphology
                   radius="1"
                   operator="erode"
                   in="SourceAlpha"
                   result="effect2_innerShadow_812_2"
                   id="feMorphology4" />
                <feOffset
                   dy="2"
                   id="feOffset4" />
                <feComposite
                   in2="hardAlpha"
                   operator="arithmetic"
                   k2="-1"
                   k3="1"
                   id="feComposite4"
                   k1="0"
                   k4="0" />
                <feColorMatrix
                   type="matrix"
                   values="0 0 0 0 1 0 0 0 0 1 0 0 0 0 1 0 0 0 0.25 0"
                   id="feColorMatrix5" />
                <feBlend
                   mode="normal"
                   in2="effect1_innerShadow_812_2"
                   result="effect2_innerShadow_812_2"
                   id="feBlend5" />
              </filter>
              <filter
                 id="filter1_d_812_2"
                 x="49"
                 y="40"
                 width="34.719299"
                 height="52.5009"
                 filterUnits="userSpaceOnUse"
                 color-interpolation-filters="sRGB">
                <feFlood
                   flood-opacity="0"
                   result="BackgroundImageFix"
                   id="feFlood5" />
                <feColorMatrix
                   in="SourceAlpha"
                   type="matrix"
                   values="0 0 0 0 0 0 0 0 0 0 0 0 0 0 0 0 0 0 127 0"
                   result="hardAlpha"
                   id="feColorMatrix6" />
                <feOffset
                   dx="2"
                   dy="2"
                   id="feOffset6" />
                <feGaussianBlur
                   stdDeviation="1.5"
                   id="feGaussianBlur6" />
                <feComposite
                   in2="hardAlpha"
                   operator="out"
                   id="feComposite6" />
                <feColorMatrix
                   type="matrix"
                   values="0 0 0 0 0 0 0 0 0 0 0 0 0 0 0 0 0 0 0.14 0"
                   id="feColorMatrix7" />
                <feBlend
                   mode="normal"
                   in2="BackgroundImageFix"
                   result="effect1_dropShadow_812_2"
                   id="feBlend7" />
                <feBlend
                   mode="normal"
                   in="SourceGraphic"
                   in2="effect1_dropShadow_812_2"
                   result="shape"
                   id="feBlend8" />
              </filter>
              <linearGradient
                 id="paint0_linear_812_2"
                 x1="34.75"
                 y1="12"
                 x2="96.5"
                 y2="116"
                 gradientUnits="userSpaceOnUse">
                <stop
                   stop-color="#F7812B"
                   id="stop8" />
                <stop
                   offset="1"
                   stop-color="#EE4242"
                   id="stop9" />
              </linearGradient>
            </defs>
          </svg>
          
        </g>
      </g>
    </g>
  </g>
    <g id="overlay-effects" transform="translate(9.5,9.5)">
        <svg xmlns:inkscape="http://www.inkscape.org/namespaces/inkscape" xmlns:sodipodi="http://sodipodi.sourceforge.net/DTD/sodipodi-0.dtd" xmlns="http://www.w3.org/2000/svg" xmlns:svg="http://www.w3.org/2000/svg" width="109" height="109" viewBox="0 0 109 109" fill="none" version="1.1" id="svg2" sodipodi:docname="effects.svg" inkscape:version="1.4.2 (ebf0e940d0, 2025-05-08)"><defs id="defs2"/><sodipodi:namedview id="namedview2" pagecolor="#ffffff" bordercolor="#111111" borderopacity="1" inkscape:showpageshadow="0" inkscape:pageopacity="0" inkscape:pagecheckerboard="1" inkscape:deskcolor="#d1d1d1" inkscape:zoom="4.0000001" inkscape:cx="32.124999" inkscape:cy="51.624999" inkscape:window-width="2560" inkscape:window-height="1298" inkscape:window-x="0" inkscape:window-y="0" inkscape:window-maximized="1" inkscape:current-layer="svg2"/><path id="rect1" style="fill:#ffffff;stroke-linecap:square;fill-opacity:0.39659169" d="M 24 0 C 10.704 0 1.4854784e-16 10.704 0 24 L 0 28 C 1.4854784e-16 14.704 10.704 4 24 4 L 85 4 C 98.296 4 109 14.704 109 28 L 109 24 C 109 10.704 98.296 1.4854784e-16 85 0 L 24 0 z "/><path id="rect1-5" style="fill:#000000;stroke-linecap:square;fill-opacity:0.19670402" d="M 24,109 C 10.704,109 0,98.296 0,85 v -4 c 0,13.296 10.704,24 24,24 h 61 c 13.296,0 24,-10.704 24,-24 v 4 c 0,13.296 -10.704,24 -24,24 z"/></svg>
    </g>
</svg>

<svg width="128" height="128" viewBox="0 0 128 128" fill="none" xmlns="http://www.w3.org/2000/svg">
<g filter="url(#filter0_ii_812_2)">
<path d="M92 12H36C22.7452 12 12 22.7452 12 36V92C12 105.255 22.7452 116 36 116H92C105.255 116 116 105.255 116 92V36C116 22.7452 105.255 12 92 12Z" fill="url(#paint0_linear_812_2)"/>
</g>
<g filter="url(#filter1_d_812_2)">
<path fill-rule="evenodd" clip-rule="evenodd" d="M70.2505 47.6087V76.1823L70.2506 76.2104V77.3756C70.2506 82.9677 65.7173 87.5009 60.1253 87.5009C54.5332 87.5009 50 82.9677 50 77.3756V76.2104C50 70.6183 54.5332 66.0851 60.1253 66.0851C61.7139 66.0851 63.217 66.4509 64.5551 67.1029V44.1706C64.5551 43.4771 64.803 42.8415 65.215 42.3476C65.7519 41.5356 66.673 41 67.7193 41C69.5327 41 72.186 41.5193 74.4722 43.1654C76.9114 44.9216 78.7193 47.8222 78.7193 52C78.7193 53.6569 77.3761 55 75.7193 55C74.0624 55 72.7193 53.6569 72.7193 52C72.7193 49.7778 71.8606 48.6784 70.9664 48.0346C70.7392 47.871 70.4979 47.7297 70.2505 47.6087Z" fill="#FAFAFA"/>
</g>
<defs>
<filter id="filter0_ii_812_2" x="12" y="12" width="104" height="105" filterUnits="userSpaceOnUse" color-interpolation-filters="sRGB">
<feFlood flood-opacity="0" result="BackgroundImageFix"/>
<feBlend mode="normal" in="SourceGraphic" in2="BackgroundImageFix" result="shape"/>
<feColorMatrix in="SourceAlpha" type="matrix" values="0 0 0 0 0 0 0 0 0 0 0 0 0 0 0 0 0 0 127 0" result="hardAlpha"/>
<feOffset dy="-4"/>
<feComposite in2="hardAlpha" operator="arithmetic" k2="-1" k3="1"/>
<feColorMatrix type="matrix" values="0 0 0 0 0 0 0 0 0 0 0 0 0 0 0 0 0 0 0.25 0"/>
<feBlend mode="normal" in2="shape" result="effect1_innerShadow_812_2"/>
<feColorMatrix in="SourceAlpha" type="matrix" values="0 0 0 0 0 0 0 0 0 0 0 0 0 0 0 0 0 0 127 0" result="hardAlpha"/>
<feMorphology radius="1" operator="erode" in="SourceAlpha" result="effect2_innerShadow_812_2"/>
<feOffset dy="2"/>
<feComposite in2="hardAlpha" operator="arithmetic" k2="-1" k3="1"/>
<feColorMatrix type="matrix" values="0 0 0 0 1 0 0 0 0 1 0 0 0 0 1 0 0 0 0.25 0"/>
<feBlend mode="normal" in2="effect1_innerShadow_812_2" result="effect2_innerShadow_812_2"/>
</filter>
<filter id="filter1_d_812_2" x="49" y="40" width="34.7193" height="52.5009" filterUnits="userSpaceOnUse" color-interpolation-filters="sRGB">
<feFlood flood-opacity="0" result="BackgroundImageFix"/>
<feColorMatrix in="SourceAlpha" type="matrix" values="0 0 0 0 0 0 0 0 0 0 0 0 0 0 0 0 0 0 127 0" result="hardAlpha"/>
<feOffset dx="2" dy="2"/>
<feGaussianBlur stdDeviation="1.5"/>
<feComposite in2="hardAlpha" operator="out"/>
<feColorMatrix type="matrix" values="0 0 0 0 0 0 0 0 0 0 0 0 0 0 0 0 0 0 0.14 0"/>
<feBlend mode="normal" in2="BackgroundImageFix" result="effect1_dropShadow_812_2"/>
<feBlend mode="normal" in="SourceGraphic" in2="effect1_dropShadow_812_2" result="shape"/>
</filter>
<linearGradient id="paint0_linear_812_2" x1="34.75" y1="12" x2="96.5" y2="116" gradientUnits="userSpaceOnUse">
<stop stop-color="#F7812B"/>
<stop offset="1" stop-color="#EE4242"/>
</linearGradient>
</defs>
</svg>
